icons/speech-bubble.svg

<svg xmlns="http://www.w3.org/2000/svg" width="24" height="24" viewBox="0 0 24 24">
  <path d="M15,3 L9,3 C4.49099359,3 1,6.5377729 1,11 C1,15.3634999 4.27285013,19 8,19 L8,20 C8,21.4937799 9.57755795,22.4597178 10.9086251,21.7821926 L11.2369286,21.6140163 L11.5946555,21.4238497 L11.8907103,21.256749 C12.948642,20.6393906 13.7103901,19.9663638 14.4215793,19.0906275 L14.492,19 L15,19 C19.5522847,19 23,15.5522847 23,11 C23,6.44771525 19.5522847,3 15,3 Z"/>
</svg>

<svg xmlns="http://www.w3.org/2000/svg" viewBox="0 0 24 24">
  <path d="M15 3H9c-4.5 0-8 3.54-8 8 0 4.36 3.27 8 7 8v1a2 2 0 0 0 2.9 1.78l.34-.17.35-.19.3-.16a8.85 8.85 0 0 0 2.53-2.17l.07-.09H15c4.55 0 8-3.45 8-8s-3.45-8-8-8z"/>
</svg>
